packages/foundations/assets/icons/functional/images/transportation/electric_scooter_32_inverted.svg

<svg width="32" height="32" viewBox="0 0 32 32" fill="none" xmlns="http://www.w3.org/2000/svg">
<g clip-path="url(#clip0_2214_6794)">
<path fill-rule="evenodd" clip-rule="evenodd" d="M26.8263 5.21761L24.6651 5.66655C23.4655 5.91573 22.6678 7.04006 22.8088 8.2396L24.2868 16.3767C22.6341 17.2988 21.281 18.361 20.3662 19.3845C19.5331 20.3166 19.1236 21.5648 19.114 23.0997L8.8317 23.0997C8.65668 21.4139 7.23197 20.0998 5.49977 20.0998C3.65004 20.0998 2.14997 21.5997 2.14997 23.4498C2.14997 25.3 3.65004 26.7998 5.49977 26.7998C6.86949 26.7998 8.04695 25.9782 8.56629 24.8008C15.5435 24.8008 19.3548 24.8005 20 24.7998C20.2838 24.8008 20.9003 24.5658 20.8467 23.8755C20.7121 22.3428 20.9879 21.24 21.6337 20.5174C22.3433 19.7234 23.3369 18.9345 24.6149 18.1566L25.0398 20.4339C23.9212 20.9765 23.1498 22.1231 23.1498 23.4498C23.1498 25.3 24.65 26.7998 26.4998 26.7998C28.3502 26.7998 29.85 25.3003 29.85 23.4498C29.85 21.6692 28.4612 20.2135 26.7077 20.1062L24.504 8.08609C24.4453 7.77003 24.6261 7.46403 24.9195 7.35698L27.172 6.88208C27.6316 6.7866 27.9268 6.3366 27.8314 5.87697C27.7432 5.45269 27.3058 5.119 26.8263 5.21761ZM26.4998 21.7998C27.4113 21.7998 28.1498 22.5383 28.1498 23.4498C28.1498 24.3614 27.4113 25.0998 26.4998 25.0998C25.5888 25.0998 24.8498 24.361 24.8498 23.4498C24.8498 22.5387 25.5888 21.7998 26.4998 21.7998ZM5.49977 21.7998C6.41133 21.7998 7.14977 22.5383 7.14977 23.4498C7.14977 24.3614 6.41133 25.0998 5.49977 25.0998C4.58882 25.0998 3.84978 24.361 3.84978 23.4498C3.84978 22.5387 4.58882 21.7998 5.49977 21.7998ZM4.00037 16.0999C3.53093 16.0999 3.15037 16.4805 3.15037 16.9499C3.15037 17.4193 3.53093 17.7999 4.00037 17.7999C7.09735 17.7999 8.45439 18.4126 9.21559 20.2719C9.39345 20.7064 9.88982 20.9144 10.3243 20.7365C10.7587 20.5587 10.9667 20.0623 10.7889 19.6279C9.7145 17.0036 7.71291 16.0999 4.00037 16.0999Z" fill="#1A1C1F"/>
</g>
<defs>
<clipPath id="clip0_2214_6794">
<rect width="32" height="32" fill="white"/>
</clipPath>
</defs>
</svg>

<svg xmlns="http://www.w3.org/2000/svg" width="32" height="32" fill="none"><g clip-path="url(#a)"><path fill="#1A1C1F" fill-rule="evenodd" d="m26.826 5.218-2.16.449a2.35 2.35 0 0 0-1.857 2.573l1.478 8.137c-1.653.922-3.006 1.984-3.92 3.008-.834.932-1.243 2.18-1.253 3.715H8.832a3.35 3.35 0 1 0-.266 1.7H20c.284 0 .9-.234.847-.925-.135-1.532.14-2.635.787-3.358q1.065-1.192 2.98-2.36l.426 2.277a3.35 3.35 0 1 0 1.668-.328l-2.204-12.02a.65.65 0 0 1 .415-.729l2.253-.475a.85.85 0 0 0 .66-1.005.86.86 0 0 0-1.006-.66M26.5 21.8a1.65 1.65 0 1 1 0 3.3 1.65 1.65 0 0 1 0-3.3m-21 0a1.65 1.65 0 1 1 0 3.3 1.65 1.65 0 0 1 0-3.3M4 16.1a.85.85 0 0 0 0 1.7c3.097 0 4.454.613 5.216 2.472a.85.85 0 1 0 1.573-.644C9.714 17.004 7.713 16.1 4 16.1" clip-rule="evenodd"/></g><defs><clipPath id="a"><path fill="#fff" d="M0 0h32v32H0z"/></clipPath></defs></svg>
